img/logo.svg

<svg width="52" height="52" viewBox="0 0 52 52" fill="none" xmlns="http://www.w3.org/2000/svg">
<path d="M31.7866 41.1929L13.2099 19.4496L25.9517 3.3431C27.3616 1.61295 29.4922 0.549601 31.8353 0.543616H32.0744V0.00347028H20.5371V0.533145H21.0651C22.5656 0.533145 23.309 2.02491 22.3803 3.36005L9.4978 21.0556L27.5956 42.1825C37.296 53.5025 45.4836 52.3658 49.101 51.4681V50.8696C42.3839 50.8696 36.1493 46.3161 31.7866 41.1935V41.1929ZM39.0141 34.9003L25.0818 18.5922L34.6378 6.51262C35.6958 5.21488 37.2933 4.41738 39.0505 4.41289H39.2304V4.0079H30.577V4.4054H30.9731C32.0985 4.4054 32.6562 5.52411 31.9596 6.52559L22.2979 19.7972L35.8711 35.6419C43.1464 44.1325 49.2872 43.2797 52 42.6064V42.1575C46.9622 42.1575 42.286 38.7426 39.0141 34.9008V34.9003ZM11.24 41.2912C9.32799 41.2912 7.77697 39.6129 7.74146 37.5287V4.31913C7.79518 2.25233 9.33845 0.593509 11.2391 0.593509L11.9302 0.595001L11.9388 0.00246573L7.58166 0V0.00347028H4.35716V0H0L0.00909991 0.598471L0.700166 0.593509C2.604 0.593509 4.15048 2.2588 4.19783 4.33258V37.5282C4.16232 39.6124 2.61128 41.2912 0.699707 41.2912L0.00865534 41.2902L0 41.8822H11.9402L11.9311 41.2902L11.24 41.2912Z" fill="white"/>
</svg>

<svg width="52" height="52" fill="none" xmlns="http://www.w3.org/2000/svg"><path d="M31.787 41.193 13.21 19.45 25.952 3.343a7.594 7.594 0 0 1 5.883-2.8h.24v-.54H20.536v.53h.528c1.5 0 2.244 1.492 1.315 2.827L9.498 21.056l18.098 21.126c9.7 11.32 17.888 10.184 21.505 9.286v-.598c-6.717 0-12.952-4.554-17.314-9.676v-.001Zm7.227-6.293L25.082 18.592l9.556-12.08a5.696 5.696 0 0 1 4.413-2.1h.18v-.404h-8.654v.397h.396c1.126 0 1.683 1.12.987 2.12l-9.662 13.272L35.87 35.642c7.275 8.49 13.416 7.638 16.129 6.964v-.449c-5.038 0-9.714-3.414-12.986-7.256ZM11.24 41.291c-1.912 0-3.463-1.678-3.499-3.762V4.319C7.795 2.252 9.338.594 11.24.594l.691.001.009-.593L7.582 0v.003H4.357V0H0l.01.598L.7.594c1.904 0 3.45 1.665 3.498 3.739v33.195C4.162 39.612 2.61 41.291.7 41.291H.009L0 41.881h11.94l-.009-.592-.691.001Z" fill="#fff"/></svg>
